X: 23
T:Single Branle
M:C|
R:Branle
B:Thoinot Arbeau : Orchesographie, 1589
Z:Steve Mansfield March 2001
K:GDor
GG BB | AG FB | BA BB |
GG BB | AG FG | GF GG ||
<end>
<start>
